dist/svg/dry-clean-duo-tone.svg

<svg xmlns="http://www.w3.org/2000/svg" viewBox="0 0 24 24"><path d="M11.607 1.281a3 3 0 0 0-.4.082c-.463.148-.96.548-1.178.947-.248.455-.348 1.244-.195 1.53a.71.71 0 0 0 .6.392c.479.034.763-.239.824-.792.015-.143.055-.318.089-.388.087-.185.331-.292.665-.292.345 0 .563.086.64.253.07.152.121.549.078.612-.047.069-.179.098-.608.131-.478.037-.631.119-.783.422-.091.181-.099.242-.099.74v.543l-2.39.794c-1.315.437-2.5.847-2.634.912-.284.138-.595.44-.768.749-.067.119-.792.998-1.611 1.954-1.417 1.654-1.591 1.883-1.595 2.11a.83.83 0 0 0 .232.543c.132.131.272.187 1.456.581l1.31.435.001 2.781c0 2.972.008 3.106.202 3.485.113.223.529.639.752.752.399.204.333.202 5.805.202s5.406.002 5.805-.202c.223-.113.639-.529.752-.752.194-.379.202-.513.202-3.485l.001-2.781 1.31-.435c1.184-.394 1.324-.45 1.456-.581a.83.83 0 0 0 .232-.543c-.004-.227-.178-.456-1.595-2.11-.819-.956-1.544-1.835-1.611-1.954-.173-.309-.484-.611-.768-.749-.134-.065-1.319-.475-2.634-.912l-2.39-.794v-.13c0-.109.018-.133.11-.154.605-.132.984-.421 1.223-.932.103-.22.123-.318.139-.667.042-.946-.321-1.677-1.018-2.047-.422-.225-1.061-.324-1.607-.25M13 7.125c.539.179.988.333.998.342.046.041-.203.411-.441.653-.831.85-2.283.85-3.114 0-.238-.242-.487-.612-.441-.653.024-.021 1.926-.66 1.978-.664.022-.002.481.143 1.02.322m-4.386.993c.312.705 1.064 1.461 1.799 1.805.505.236.816.293 1.587.293s1.082-.057 1.587-.293c.725-.339 1.383-.987 1.752-1.723.061-.121.116-.226.123-.234.023-.025 1.599.513 1.69.577l.088.062v5.244c0 4.824-.005 5.251-.066 5.318-.064.07-.276.073-5.167.073-4.69 0-5.107-.005-5.174-.066-.07-.064-.073-.281-.073-5.319V8.602l.095-.063c.088-.057 1.551-.569 1.647-.576.024-.002.074.068.112.155M5.24 11.257v.697l-.443-.148c-.244-.082-.445-.164-.447-.184-.004-.03.851-1.062.88-1.062.005 0 .01.314.01.697m14.016-.14c.234.274.411.51.395.525a4 4 0 0 1-.461.17l-.43.142v-.705c0-.418.015-.69.036-.667.02.021.227.262.46.535"/></svg>

<svg fill="none" xmlns="http://www.w3.org/2000/svg" viewBox="0 0 24 24"><path d="M11.607 1.281 C 11.468 1.300,11.288 1.337,11.207 1.363 C 10.744 1.511,10.247 1.911,10.029 2.310 C 9.781 2.765,9.681 3.554,9.834 3.840 C 9.962 4.078,10.168 4.213,10.434 4.232 C 10.913 4.266,11.197 3.993,11.258 3.440 C 11.273 3.297,11.313 3.122,11.347 3.052 C 11.434 2.867,11.678 2.760,12.012 2.760 C 12.357 2.760,12.575 2.846,12.652 3.013 C 12.722 3.165,12.773 3.562,12.730 3.625 C 12.683 3.694,12.551 3.723,12.122 3.756 C 11.644 3.793,11.491 3.875,11.339 4.178 C 11.248 4.359,11.240 4.420,11.240 4.918 L 11.240 5.461 8.850 6.255 C 7.535 6.692,6.350 7.102,6.216 7.167 C 5.932 7.305,5.621 7.607,5.448 7.916 C 5.381 8.035,4.656 8.914,3.837 9.870 C 2.420 11.524,2.246 11.753,2.242 11.980 C 2.239 12.157,2.337 12.386,2.474 12.523 C 2.606 12.654,2.746 12.710,3.930 13.104 L 5.240 13.539 5.241 16.320 C 5.241 19.292,5.249 19.426,5.443 19.805 C 5.556 20.028,5.972 20.444,6.195 20.557 C 6.594 20.761,6.528 20.759,12.000 20.759 C 17.472 20.759,17.406 20.761,17.805 20.557 C 18.028 20.444,18.444 20.028,18.557 19.805 C 18.751 19.426,18.759 19.292,18.759 16.320 L 18.760 13.539 20.070 13.104 C 21.254 12.710,21.394 12.654,21.526 12.523 C 21.663 12.386,21.761 12.157,21.758 11.980 C 21.754 11.753,21.580 11.524,20.163 9.870 C 19.344 8.914,18.619 8.035,18.552 7.916 C 18.379 7.607,18.068 7.305,17.784 7.167 C 17.650 7.102,16.465 6.692,15.150 6.255 L 12.760 5.461 12.760 5.331 C 12.760 5.222,12.778 5.198,12.870 5.177 C 13.475 5.045,13.854 4.756,14.093 4.245 C 14.196 4.025,14.216 3.927,14.232 3.578 C 14.274 2.632,13.911 1.901,13.214 1.531 C 12.792 1.306,12.153 1.207,11.607 1.281 M13.000 7.125 C 13.539 7.304,13.988 7.458,13.998 7.467 C 14.044 7.508,13.795 7.878,13.557 8.120 C 12.726 8.970,11.274 8.970,10.443 8.120 C 10.205 7.878,9.956 7.508,10.002 7.467 C 10.026 7.446,11.928 6.807,11.980 6.803 C 12.002 6.801,12.461 6.946,13.000 7.125 M8.614 8.118 C 8.926 8.823,9.678 9.579,10.413 9.923 C 10.918 10.159,11.229 10.216,12.000 10.216 C 12.771 10.216,13.082 10.159,13.587 9.923 C 14.312 9.584,14.970 8.936,15.339 8.200 C 15.400 8.079,15.455 7.974,15.462 7.966 C 15.485 7.941,17.061 8.479,17.152 8.543 L 17.240 8.605 17.240 13.849 C 17.240 18.673,17.235 19.100,17.174 19.167 C 17.110 19.237,16.898 19.240,12.007 19.240 C 7.317 19.240,6.900 19.235,6.833 19.174 C 6.763 19.110,6.760 18.893,6.760 13.855 L 6.760 8.602 6.855 8.539 C 6.943 8.482,8.406 7.970,8.502 7.963 C 8.526 7.961,8.576 8.031,8.614 8.118 M5.240 11.257 L 5.240 11.954 4.797 11.806 C 4.553 11.724,4.352 11.642,4.350 11.622 C 4.346 11.592,5.201 10.560,5.230 10.560 C 5.235 10.560,5.240 10.874,5.240 11.257 M19.256 11.117 C 19.490 11.391,19.667 11.627,19.651 11.642 C 19.634 11.657,19.427 11.734,19.190 11.812 L 18.760 11.954 18.760 11.249 C 18.760 10.831,18.775 10.559,18.796 10.582 C 18.816 10.603,19.023 10.844,19.256 11.117 " stroke="none" fill-rule="evenodd"/></svg>
